src/assets/images/logos/angular.svg

<svg width="41" height="43" viewBox="0 0 41 43" fill="none" xmlns="http://www.w3.org/2000/svg">
<path d="M20.5002 26.6441H25.732L28.2103 32.8291H32.8278L20.5002 5.18743V5.20861V0.506348L40.2201 7.53856L37.2123 33.6128L20.5002 42.869V26.6441Z" fill="#D3263E"/>
<path d="M24.1011 22.8316H20.5002V14.1685L24.1011 22.8316Z" fill="#D3263E"/>
<path d="M20.4999 26.6446H15.2681L12.7899 32.8296H8.17232L20.4999 5.18791V5.2091V0.506836L0.780029 7.53904L3.78778 33.6133L20.4999 42.8695V26.6446Z" fill="#E92441"/>
<path d="M16.8992 22.8316H20.5V14.1685L16.8992 22.8316Z" fill="#E92441"/>
</svg>

<svg width="41" height="43" fill="none" xmlns="http://www.w3.org/2000/svg"><path d="M20.5 26.644h5.232l2.478 6.185h4.618L20.5 5.187v.022V.506L40.22 7.54l-3.008 26.074L20.5 42.869V26.644z" fill="#D3263E"/><path d="M24.101 22.832h-3.6v-8.664l3.6 8.664z" fill="#D3263E"/><path d="M20.5 26.645h-5.232L12.79 32.83H8.172L20.5 5.188v.021V.507L.78 7.539l3.008 26.074L20.5 42.87V26.645z" fill="#E92441"/><path d="M16.9 22.832h3.6v-8.664l-3.6 8.664z" fill="#E92441"/></svg>
